svg/FoundationIcons/fi-target.svg

<svg xmlns="http://www.w3.org/2000/svg" viewBox="0 0 100 100" enable-background="new 0 0 100 100"><path d="m49.984 27.452c-12.453 0-22.548 10.1-22.548 22.548 0 12.453 10.1 22.548 22.548 22.548s22.547-10.09 22.547-22.548c0-12.453-10.1-22.548-22.547-22.548m0 35.16c-6.964 0-12.609-5.645-12.609-12.608 0-6.964 5.645-12.609 12.609-12.609s12.608 5.645 12.608 12.609c0 6.963-5.645 12.608-12.608 12.608"/><path d="m50 12.5c-20.712 0-37.5 16.793-37.5 37.502 0 20.71 16.788 37.498 37.5 37.498 20.712 0 37.5-16.788 37.5-37.498 0-20.709-16.788-37.502-37.5-37.502m0 65.06c-15.199 0-27.56-12.362-27.56-27.559 0-15.195 12.362-27.562 27.56-27.562 15.198 0 27.56 12.367 27.56 27.562 0 15.196-12.362 27.559-27.56 27.559"/><circle cx="49.984" cy="50" r="7.621"/></svg>

<?xml version="1.0" encoding="utf-8"?>
<!-- Generator: Adobe Illustrator 17.0.0, SVG Export Plug-In . SVG Version: 6.00 Build 0)  -->
<!DOCTYPE svg PUBLIC "-//W3C//DTD SVG 1.1//EN" "http://www.w3.org/Graphics/SVG/1.1/DTD/svg11.dtd">
<svg version="1.1" id="Layer_1" xmlns="http://www.w3.org/2000/svg" xmlns:xlink="http://www.w3.org/1999/xlink" x="0px" y="0px"
	 width="100px" height="100px" viewBox="0 0 100 100" enable-background="new 0 0 100 100" xml:space="preserve">
<g>
	<path d="M49.984,27.452c-12.453,0-22.548,10.095-22.548,22.548c0,12.453,10.095,22.548,22.548,22.548S72.531,62.453,72.531,50
		C72.531,37.547,62.436,27.452,49.984,27.452z M49.984,62.608c-6.964,0-12.609-5.645-12.609-12.608
		c0-6.964,5.645-12.609,12.609-12.609S62.592,43.036,62.592,50C62.592,56.963,56.947,62.608,49.984,62.608z"/>
	<path d="M50,12.5c-20.712,0-37.5,16.793-37.5,37.502C12.5,70.712,29.288,87.5,50,87.5c20.712,0,37.5-16.788,37.5-37.498
		C87.5,29.293,70.712,12.5,50,12.5z M50,77.561c-15.199,0-27.56-12.362-27.56-27.559c0-15.195,12.362-27.562,27.56-27.562
		c15.198,0,27.56,12.367,27.56,27.562C77.56,65.198,65.198,77.561,50,77.561z"/>
	<circle cx="49.984" cy="50" r="7.621"/>
</g>
</svg>
